dist/img/icons/specialty/6.svg

<svg width="64" height="64" viewBox="0 0 64 64" fill="none" xmlns="http://www.w3.org/2000/svg">
<g clip-path="url(#clip0_115_1797)">
<path d="M44.8002 32.0057C44.8002 20.8127 35.7269 11.7394 24.5339 11.7394C13.3414 11.7394 4.26758 20.8127 4.26758 32.0057C4.26758 43.1982 13.3414 52.272 24.5339 52.272C35.7217 52.2595 44.7877 43.193 44.8002 32.0057V32.0057ZM33.002 48.0278C32.965 48.0179 32.927 48.0106 32.8889 48.0054H19.2006V44.8055H28.3588L26.9797 46.1846L28.488 47.6929L31.3754 44.8055H37.3649C36.079 46.0909 34.6087 47.1768 33.002 48.0278V48.0278ZM6.40087 32.0057C6.3816 24.136 11.4398 17.1528 18.923 14.7175C26.4057 12.2826 34.6056 14.9518 39.2206 21.3257C43.8361 27.6995 43.8137 36.3223 39.1654 42.6722H33.5118L39.1576 37.0264L37.6493 35.5181L30.4921 42.6722H23.9089L38.0878 28.4933L36.5795 26.9849L20.8923 42.6722H18.134C17.5449 42.6722 17.0673 43.1498 17.0673 43.7388V48.5106C10.582 45.5773 6.41129 39.1233 6.40087 32.0057V32.0057Z" fill="#F1B08D"/>
<path d="M62.9334 42.6722H46.6232C51.208 33.1813 49.2185 21.8221 41.6801 14.455C34.1417 7.08796 22.7398 5.35934 13.3566 10.1613C3.97344 14.9633 -1.29365 25.222 0.272465 35.6458C1.83858 46.069 9.88741 54.3272 20.2674 56.16V56.5387H60.8001C61.3891 56.5387 61.8667 56.0611 61.8667 55.472V50.1388H62.9334C63.5224 50.1388 64 49.6612 64 49.0721V43.7389C64 43.1498 63.5224 42.6722 62.9334 42.6722V42.6722ZM2.13441 32.0057C2.13441 19.6346 12.1629 9.60614 24.534 9.60614C36.9052 9.60614 46.9336 19.6346 46.9336 32.0057C46.9336 44.3764 36.9052 54.4054 24.534 54.4054C12.1691 54.3913 2.14847 44.3706 2.13441 32.0057ZM59.7334 54.4054H34.5214C35.8776 53.7991 37.176 53.071 38.4005 52.2304V52.2721H40.5338V50.5804C40.7035 50.4341 40.8754 50.2898 41.0416 50.1388H42.667V52.2721H44.8003V50.1388H46.9336V52.2721H49.0669V50.1388H51.2002V52.2721H53.3335V50.1388H55.4668V52.2721H57.6001V50.1388H59.7334V54.4054ZM61.8667 48.0055H43.1087C43.9754 47.0034 44.7602 45.9331 45.4555 44.8055H61.8667V48.0055Z" fill="#F1B08D"/>
<path d="M14.1802 40.8509L33.3798 21.6512L34.8887 23.1596L15.6885 42.3592L14.1802 40.8509Z" fill="#F1B08D"/>
<path d="M10.98 34.4515L26.9792 18.4518L28.488 19.9601L12.4883 35.9598L10.98 34.4515Z" fill="#F1B08D"/>
<path d="M9.91357 25.9178L18.4473 17.3846L19.9556 18.8929L11.4219 27.4266L9.91357 25.9178Z" fill="#F1B08D"/>
<path d="M51.2002 7.47278H53.3335V9.60611H51.2002V7.47278Z" fill="#F1B08D"/>
<path d="M51.2002 13.8727H53.3335V16.006H51.2002V13.8727Z" fill="#F1B08D"/>
<path d="M48 10.6727H50.1333V12.8061H48V10.6727Z" fill="#F1B08D"/>
<path d="M54.3999 10.6727H56.5332V12.8061H54.3999V10.6727Z" fill="#F1B08D"/>
<path d="M55.4668 21.3392H57.6001V23.4726H55.4668V21.3392Z" fill="#F1B08D"/>
<path d="M55.4668 25.6058H57.6001V27.7392H55.4668V25.6058Z" fill="#F1B08D"/>
<path d="M53.3335 23.4725H55.4668V25.6059H53.3335V23.4725Z" fill="#F1B08D"/>
<path d="M57.6001 23.4725H59.7334V25.6059H57.6001V23.4725Z" fill="#F1B08D"/>
</g>
<defs>
<clipPath id="clip0_115_1797">
<rect width="64" height="64" fill="white"/>
</clipPath>
</defs>
</svg>

<svg width="64" height="64" fill="none" xmlns="http://www.w3.org/2000/svg"><g clip-path="url(#clip0_115_1797)" fill="#F1B08D"><path d="M44.8 32.006c0-11.193-9.073-20.267-20.266-20.267-11.193 0-20.266 9.074-20.266 20.267 0 11.192 9.073 20.266 20.266 20.266 11.188-.012 20.254-9.079 20.266-20.266zM33.002 48.028a.92.92 0 00-.113-.023H19.2v-3.2h9.158l-1.38 1.38 1.509 1.508 2.887-2.887h5.99a18.26 18.26 0 01-4.363 3.222zM6.401 32.006a18.133 18.133 0 1132.764 10.666h-5.653l5.646-5.646-1.509-1.508-7.157 7.154H23.91l14.179-14.179-1.508-1.508-15.688 15.687h-2.758c-.59 0-1.067.478-1.067 1.067v4.772A18.143 18.143 0 016.401 32.006z"/><path d="M62.933 42.672h-16.31A24.533 24.533 0 1020.267 56.16v.379H60.8c.59 0 1.067-.478 1.067-1.067v-5.333h1.066c.59 0 1.067-.478 1.067-1.067V43.74c0-.59-.478-1.067-1.067-1.067zM2.134 32.006c0-12.371 10.029-22.4 22.4-22.4 12.371 0 22.4 10.029 22.4 22.4 0 12.37-10.029 22.4-22.4 22.4-12.365-.015-22.386-10.035-22.4-22.4zm57.6 22.4H34.52a24.579 24.579 0 003.88-2.176v.042h2.133V50.58c.17-.146.341-.29.508-.441h1.625v2.133H44.8V50.14h2.134v2.133h2.133V50.14H51.2v2.133h2.133V50.14h2.134v2.133H57.6V50.14h2.133v4.266zm2.133-6.4H43.109a24.75 24.75 0 002.346-3.2h16.412v3.2z"/><path d="M14.18 40.85l19.2-19.199 1.509 1.509-19.2 19.2-1.509-1.51zm-3.2-6.398l16-16 1.508 1.508-16 16-1.508-1.508zm-1.066-8.534l8.533-8.533 1.509 1.508-8.534 8.534-1.508-1.51zM51.2 7.473h2.133v2.133H51.2V7.473zm0 6.4h2.133v2.133H51.2v-2.133zm-3.2-3.2h2.133v2.133H48v-2.133zm6.4 0h2.133v2.133H54.4v-2.133zm1.067 10.667H57.6v2.133h-2.133v-2.134zm0 4.266H57.6v2.133h-2.133v-2.133z"/><path d="M53.334 23.473h2.133v2.133h-2.133v-2.134zm4.266 0h2.133v2.133H57.6v-2.134z"/></g><defs><clipPath id="clip0_115_1797"><path fill="#fff" d="M0 0h64v64H0z"/></clipPath></defs></svg>
